images/icons/utensils-solid.svg

<svg xmlns="http://www.w3.org/2000/svg" viewBox="0 0 448 512"><!--! Font Awesome Pro 6.4.0 by @fontawesome - https://fontawesome.com License - https://fontawesome.com/license (Commercial License) Copyright 2023 Fonticons, Inc. --><path d="M416 0C400 0 288 32 288 176V288c0 35.3 28.7 64 64 64h32V480c0 17.7 14.3 32 32 32s32-14.3 32-32V352 240 32c0-17.7-14.3-32-32-32zM64 16C64 7.8 57.9 1 49.7 .1S34.2 4.6 32.4 12.5L2.1 148.8C.7 155.1 0 161.5 0 167.9c0 45.9 35.1 83.6 80 87.7V480c0 17.7 14.3 32 32 32s32-14.3 32-32V255.6c44.9-4.1 80-41.8 80-87.7c0-6.4-.7-12.8-2.1-19.1L191.6 12.5c-1.8-8-9.3-13.3-17.4-12.4S160 7.8 160 16V150.2c0 5.4-4.4 9.8-9.8 9.8c-5.1 0-9.3-3.9-9.8-9L127.9 14.6C127.2 6.3 120.3 0 112 0s-15.2 6.3-15.9 14.6L83.7 151c-.5 5.1-4.7 9-9.8 9c-5.4 0-9.8-4.4-9.8-9.8V16zm48.3 152l-.3 0-.3 0 .3-.7 .3 .7z"/></svg>

<?xml version="1.0" encoding="UTF-8" standalone="no"?>
<!DOCTYPE svg PUBLIC "-//W3C//DTD SVG 1.1//EN" "http://www.w3.org/Graphics/SVG/1.1/DTD/svg11.dtd">
<svg width="100%" height="100%" viewBox="0 0 448 512" version="1.1" xmlns="http://www.w3.org/2000/svg" xmlns:xlink="http://www.w3.org/1999/xlink" xml:space="preserve" xmlns:serif="http://www.serif.com/" style="fill-rule:evenodd;clip-rule:evenodd;stroke-linejoin:round;stroke-miterlimit:2;">
    <path d="M416,0C400,0 288,32 288,176L288,288C288,323.3 316.7,352 352,352L384,352L384,480C384,497.7 398.3,512 416,512C433.7,512 448,497.7 448,480L448,32C448,14.3 433.7,0 416,0ZM64,16C64,7.8 57.9,1 49.7,0.1C41.5,-0.8 34.2,4.6 32.4,12.5L2.1,148.8C0.7,155.1 0,161.5 0,167.9C0,213.8 35.1,251.5 80,255.6L80,480C80,497.7 94.3,512 112,512C129.7,512 144,497.7 144,480L144,255.6C188.9,251.5 224,213.8 224,167.9C224,161.5 223.3,155.1 221.9,148.8L191.6,12.5C189.8,4.5 182.3,-0.8 174.2,0.1C166.1,1 160,7.8 160,16L160,150.2C160,155.6 155.6,160 150.2,160C145.1,160 140.9,156.1 140.4,151L127.9,14.6C127.2,6.3 120.3,0 112,0C103.7,0 96.8,6.3 96.1,14.6L83.7,151C83.2,156.1 79,160 73.9,160C68.5,160 64.1,155.6 64.1,150.2L64.1,16L64,16ZM112.3,168L111.7,168L112,167.3L112.3,168Z" style="fill:rgb(183,183,183);fill-rule:nonzero;"/>
</svg>
